;FLAVOR:Marlin
;TIME:9600
;Filament used: 12.0963m
;Layer height: 0.2
;MINX:33.907
;MINY:81.935
;MINZ:0.2
;MAXX:186.007
;MAXY:138.035
;MAXZ:52.5
;Generated with Cura_SteamEngine 4.11.0
M82 ;absolute extrusion mode
M82 ;absolute extrusion mode
M190 S55; start bed 55°C
M140 S80;bed
M104 S245.0 ;start HE
M190 S80 ;wait bed
M109 S245.0 ;wait HE

M201 X1000.00 Y1000.00 Z1000.00 E5000.00 ;Setup machine max acceleration
M203 X500.00 Y500.00 Z10.00 E200.00 ;Setup machine max feedrate
M204 P1000.00 R1500.00 T1000.00 ;Setup Print/Retract/Travel acceleration
M205 X8.00 Y8.00 Z0.40 E5.00 ;Setup Jerk
M220 S100 ;Reset Feedrate
M221 S100 ;Reset Flowrate

G28 ;Home

G92 E0 ;Reset Extruder
G1 Z2.0 F3000 ;Move Z Axis up
G1 X0 Y15 Z0.2 F5000.0 ;Move to start position
G1 X0 Y205 Z0.2 F1500.0 E15 ;Draw down
G1 X0.4 Y205 Z0.2 F5000.0 ;Move to side a little
G1 X0.4 Y15 Z0.2 F1500.0 E30 ;Draw up
G1 E25 ;Retract
G1 Z5 F1500.0 ;Move up

G1 X10 Y10 F1500.0 ;Home
G1 E30 ;Prime
G92 E0 ;Reset Extruder
G92 E0
G92 E0
G1 F3000 E-11
;LAYER_COUNT:260
;LAYER:0
M107
M204 S700
M205 X7 Y7
G1 F300 Z0.7
G0 F6000 X34.482 Y82.03 Z0.7
M204 S750
;TYPE:SKIRT
G1 F300 Z0.2
G1 F3000 E0
G1 F1200 X34.752 Y81.947 E0.00986
G1 X34.907 Y81.935 E0.01529
G1 X185.007 Y81.935 E5.25726
G1 X185.286 Y81.975 E5.2671
G1 X185.543 Y82.091 E5.27695
G1 X185.758 Y82.274 E5.28681
G1 X185.912 Y82.51 E5.29665
G1 X185.995 Y82.78 E5.30651
G1 X186.007 Y82.935 E5.31194
G1 X186.007 Y137.035 E7.20129
G1 X185.967 Y137.314 E7.21113
G1 X185.851 Y137.571 E7.22098
G1 X185.668 Y137.786 E7.23084
G1 X185.432 Y137.94 E7.24068
G1 X185.162 Y138.023 E7.25054
G1 X185.007 Y138.035 E7.25597
G1 X34.907 Y138.035 E12.49793
G1 X34.628 Y137.995 E12.50778
G1 X34.371 Y137.879 E12.51763
G1 X34.156 Y137.696 E12.52749
G1 X34.002 Y137.46 E12.53733
G1 X33.919 Y137.19 E12.54719
G1 X33.907 Y137.035 E12.55262
G1 X33.907 Y82.935 E14.44196
G1 X33.947 Y82.656 E14.45181
G1 X34.063 Y82.399 E14.46165
G1 X34.246 Y82.184 E14.47151
G1 X34.482 Y82.03 E14.48135
M204 S700
G0 F6000 X34.633 Y82.401
M204 S750
G1 F1200 X34.907 Y82.335 E14.4912
G1 X185.007 Y82.335 E19.73316
G1 X185.222 Y82.375 E19.7408
G1 X185.408 Y82.488 E19.7484
G1 X185.541 Y82.661 E19.75602
G1 X185.607 Y82.935 E19.76586
G1 X185.607 Y137.035 E21.6552
G1 X185.567 Y137.25 E21.66284
G1 X185.454 Y137.436 E21.67044
G1 X185.281 Y137.569 E21.67806
G1 X185.007 Y137.635 E21.6879
G1 X34.907 Y137.635 E26.92987
G1 X34.692 Y137.595 E26.93751
G1 X34.506 Y137.482 E26.94511
G1 X34.373 Y137.309 E26.95273
G1 X34.307 Y137.035 E26.96257
G1 X34.307 Y82.935 E28.85191
G1 X34.347 Y82.72 E28.85955
G1 X34.46 Y82.534 E28.86715
G1 X34.633 Y82.401 E28.87477
M204 S700
G0 F6000 X34.907 Y82.735
M204 S750
G1 F1200 X185.007 Y82.735 E34.11673
G1 X185.126 Y82.774 E34.12111
G1 X185.207 Y82.935 E34.1274
G1 X185.207 Y137.035 E36.01674
G1 X185.168 Y137.154 E36.02112
G1 X185.007 Y137.235 E36.02741
G1 X34.907 Y137.235 E41.26937
G1 X34.788 Y137.196 E41.27375
G1 X34.707 Y137.035 E41.28004
G1 X34.707 Y82.935 E43.16938
G1 X34.746 Y82.816 E43.17376
G1 X34.907 Y82.735 E43.18005
M204 S700
G1 F3000 E32.18005
G1 F300 Z0.7
;MESH:ControlPanelCover.3MF
G0 F6000 X184.757 Y136.785 Z0.7
M204 S750
;TYPE:WALL-OUTER
G1 F300 Z0.2
G1 F3000 E43.18005
G1 F1200 X35.157 Y136.785 E48.40455
G1 X35.157 Y83.185 E50.27643
G1 X184.757 Y83.185 E55.50094
G1 X184.757 Y136.785 E57.37282
M204 S700
G1 F3000 E46.37282
G0 F6000 X184.287 Y136.315
G0 X38.483 Y134.141
G1 F3000 E57.37282
G0 F6000 X38.188 Y133.738
M204 S750
G1 F1200 X38.429 Y133.561 E57.38326
G1 X38.632 Y133.335 E57.39387
G1 X38.783 Y133.071 E57.40449
G1 X38.875 Y132.788 E57.41488
G1 X38.907 Y132.482 E57.42563
G1 X38.874 Y132.176 E57.43637
G1 X38.781 Y131.892 E57.44681
G1 X38.63 Y131.632 E57.45731
G1 X38.37 Y131.357 E57.47053
G1 X38.11 Y131.19 E57.48132
G1 X37.828 Y131.082 E57.49187
G1 X37.529 Y131.036 E57.50243
G1 X37.227 Y131.052 E57.51299
G1 X36.934 Y131.132 E57.5236
G1 X36.606 Y131.31 E57.53663
G1 X36.377 Y131.516 E57.54739
G1 X36.203 Y131.758 E57.5578
G1 X36.076 Y132.041 E57.56863
G1 X36.015 Y132.337 E57.57919
G1 X36.015 Y132.638 E57.5897
G1 X36.078 Y132.934 E57.60027
G1 X36.242 Y133.276 E57.61351
G1 X36.434 Y133.512 E57.62414
G1 X36.733 Y133.741 E57.63729
G1 X37.013 Y133.866 E57.648
G1 X37.308 Y133.927 E57.65852
G1 X37.612 Y133.927 E57.66914
G1 X37.907 Y133.863 E57.67968
G1 X38.188 Y133.738 E57.69042
M204 S700
G0 F6000 X38.39 Y134.086
M204 S750
;TYPE:WALL-INNER
G1 F1200 X38.699 Y133.859 E57.70381
G1 X38.958 Y133.571 E57.71733
G1 X39.151 Y133.234 E57.7309
G1 X39.268 Y132.872 E57.74418
G1 X39.309 Y132.481 E57.75791
G1 X39.267 Y132.091 E57.77161
G1 X39.148 Y131.728 E57.78495
G1 X38.953 Y131.391 E57.79855
G1 X38.627 Y131.047 E57.8151
G1 X38.292 Y130.831 E57.82902
G1 X37.931 Y130.693 E57.84252
G1 X37.549 Y130.634 E57.85602
G1 X37.163 Y130.655 E57.86952
G1 X36.784 Y130.758 E57.88323
G1 X36.374 Y130.981 E57.89953
G1 X36.077 Y131.247 E57.91346
G1 X35.946 Y131.43 E57.92132
G1 X35.855 Y131.557 E57.92677
G1 X35.693 Y131.917 E57.94056
G1 X35.615 Y132.296 E57.95407
G1 X35.615 Y132.68 E57.96748
G1 X35.697 Y133.064 E57.9812
G1 X35.902 Y133.492 E57.99777
G1 X35.949 Y133.551 E58.0004
G1 X36.153 Y133.801 E58.01167
G1 X36.527 Y134.087 E58.02812
G1 X36.89 Y134.249 E58.042
G1 X37.267 Y134.327 E58.05544
G1 X37.655 Y134.327 E58.06899
G1 X38.032 Y134.245 E58.08247
G1 X38.39 Y134.086 E58.09615
M204 S700
G1 F3000 E47.09615
G0 F6000 X38.44 Y134.172
G0 X38.99 Y133.594
G0 X39.187 Y133.25
G0 X39.307 Y132.88
G0 X38.483 Y87.141
G1 F3000 E58.09615
G0 F6000 X38.188 Y86.738
M204 S750
;TYPE:WALL-OUTER
G1 F1200 X38.429 Y86.561 E58.10659
G1 X38.632 Y86.335 E58.1172
G1 X38.783 Y86.071 E58.12782
G1 X38.875 Y85.788 E58.13821
G1 X38.907 Y85.482 E58.14896
G1 X38.874 Y85.176 E58.1597
G1 X38.781 Y84.892 E58.17014
G1 X38.63 Y84.632 E58.18064
G1 X38.37 Y84.357 E58.19386
G1 X38.11 Y84.19 E58.20465
G1 X37.828 Y84.082 E58.2152
G1 X37.529 Y84.036 E58.22576
G1 X37.227 Y84.052 E58.23632
G1 X36.934 Y84.132 E58.24693
G1 X36.606 Y84.31 E58.25996
G1 X36.377 Y84.516 E58.27072
G1 X36.203 Y84.758 E58.28113
G1 X36.076 Y85.041 E58.29196
G1 X36.015 Y85.337 E58.30252
G1 X36.015 Y85.638 E58.31303
G1 X36.078 Y85.934 E58.3236
G1 X36.242 Y86.276 E58.33684
G1 X36.434 Y86.512 E58.34747
G1 X36.733 Y86.741 E58.36062
G1 X37.013 Y86.866 E58.37133
G1 X37.308 Y86.927 E58.38185
G1 X37.612 Y86.927 E58.39247
G1 X37.907 Y86.863 E58.40301
G1 X38.188 Y86.738 E58.41375
M204 S700
G0 F6000 X38.39 Y87.086
M204 S750
;TYPE:WALL-INNER
G1 F1200 X38.699 Y86.859 E58.42714
G1 X38.958 Y86.571 E58.44067
G1 X39.151 Y86.234 E58.45423
G1 X39.268 Y85.872 E58.46751
G1 X39.309 Y85.481 E58.48124
G1 X39.267 Y85.091 E58.49494
G1 X39.148 Y84.728 E58.50828
G1 X38.953 Y84.391 E58.52188
G1 X38.627 Y84.047 E58.53843
G1 X38.51 Y83.971 E58.5433
G1 X38.292 Y83.831 E58.55235
G1 X37.931 Y83.693 E58.56585
G1 X37.549 Y83.634 E58.57935
G1 X37.163 Y83.655 E58.59285
G1 X36.784 Y83.758 E58.60656
G1 X36.374 Y83.981 E58.62286
G1 X36.372 Y83.983 E58.62296
G1 X36.077 Y84.247 E58.63679
G1 X35.946 Y84.43 E58.64465
G1 X35.855 Y84.557 E58.6501
G1 X35.693 Y84.917 E58.66389
G1 X35.615 Y85.296 E58.6774
G1 X35.615 Y85.68 E58.69081
G1 X35.697 Y86.064 E58.70453
G1 X35.902 Y86.492 E58.7211
G1 X35.949 Y86.551 E58.72373
G1 X36.153 Y86.801 E58.735
G1 X36.527 Y87.087 E58.75145
G1 X36.89 Y87.249 E58.76533
G1 X37.267 Y87.327 E58.77877
G1 X37.655 Y87.327 E58.79232
G1 X38.032 Y87.245 E58.8058
G1 X38.39 Y87.086 E58.81948
M204 S700
G1 F3000 E47.81948
G0 F6000 X38.44 Y87.172
G0 X181.43 Y87.137
G1 F3000 E58.81948
G0 F6000 X181.733 Y86.741
M204 S750
;TYPE:WALL-OUTER
G1 F1200 X182.013 Y86.866 E58.83019
G1 X182.308 Y86.927 E58.84071
G1 X182.612 Y86.927 E58.85132
G1 X182.907 Y86.863 E58.86186
G1 X183.188 Y86.738 E58.8726
G1 X183.429 Y86.561 E58.88305
G1 X183.632 Y86.335 E58.89366
G1 X183.783 Y86.071 E58.90428
G1 X183.875 Y85.788 E58.91467
G1 X183.907 Y85.482 E58.92541
G1 X183.874 Y85.176 E58.93616
G1 X183.781 Y84.892 E58.9466
G1 X183.63 Y84.632 E58.9571
G1 X183.37 Y84.357 E58.97032
G1 X183.11 Y84.19 E58.98111
G1 X182.828 Y84.082 E58.99165
G1 X182.529 Y84.036 E59.00222
G1 X182.227 Y84.052 E59.01278
G1 X181.934 Y84.132 E59.02339
G1 X181.606 Y84.31 E59.03642
G1 X181.377 Y84.516 E59.04718
G1 X181.203 Y84.758 E59.05759
G1 X181.076 Y85.041 E59.06842
G1 X181.015 Y85.337 E59.07897
G1 X181.015 Y85.638 E59.08949
G1 X181.078 Y85.934 E59.10005
G1 X181.242 Y86.276 E59.1133
G1 X181.434 Y86.512 E59.12393
G1 X181.733 Y86.741 E59.13708
M204 S700
G0 F6000 X181.527 Y87.087
M204 S750
;TYPE:WALL-INNER
G1 F1200 X181.89 Y87.249 E59.15096
G1 X182.267 Y87.327 E59.16441
G1 X182.655 Y87.327 E59.17796
G1 X183.032 Y87.245 E59.19143
G1 X183.39 Y87.086 E59.20511
G1 X183.699 Y86.859 E59.2185
G1 X183.958 Y86.571 E59.23203
G1 X184.151 Y86.234 E59.24559
G1 X184.268 Y85.872 E59.25888
G1 X184.309 Y85.481 E59.27261
G1 X184.267 Y85.091 E59.2863
G1 X184.148 Y84.728 E59.29964
G1 X183.972 Y84.423 E59.31194
G1 X183.953 Y84.391 E59.31324
G1 X183.627 Y84.047 E59.32979
G1 X183.51 Y83.971 E59.33467
G1 X183.292 Y83.831 E59.34371
G1 X182.931 Y83.693 E59.35721
G1 X182.549 Y83.634 E59.37071
G1 X182.163 Y83.655 E59.38421
G1 X181.784 Y83.758 E59.39793
G1 X181.374 Y83.981 E59.41423
G1 X181.372 Y83.983 E59.41432
G1 X181.077 Y84.247 E59.42815
G1 X180.855 Y84.557 E59.44147
G1 X180.693 Y84.917 E59.45525
G1 X180.615 Y85.296 E59.46877
G1 X180.615 Y85.68 E59.48218
G1 X180.697 Y86.064 E59.49589
G1 X180.902 Y86.492 E59.51246
G1 X181.153 Y86.801 E59.52636
G1 X181.527 Y87.087 E59.54281
M204 S700
G1 F3000 E48.54281
G0 F6000 X181.476 Y87.172
G0 X180.576 Y132.684
G0 X180.66 Y133.076
G0 X181.13 Y133.908
G1 F3000 E59.54281
G0 F6000 X181.434 Y133.512
M204 S750
;TYPE:WALL-OUTER
G1 F1200 X181.733 Y133.741 E59.55596
G1 X182.013 Y133.866 E59.56667
G1 X182.308 Y133.927 E59.57719
G1 X182.612 Y133.927 E59.58781
G1 X182.907 Y133.863 E59.59835
G1 X183.188 Y133.738 E59.60909
G1 X183.429 Y133.561 E59.61953
G1 X183.632 Y133.335 E59.63014
G1 X183.783 Y133.071 E59.64076
G1 X183.875 Y132.788 E59.65115
G1 X183.907 Y132.482 E59.6619
G1 X183.874 Y132.176 E59.67265
G1 X183.781 Y131.892 E59.68308
G1 X183.63 Y131.632 E59.69358
G1 X183.37 Y131.357 E59.7068
G1 X183.11 Y131.19 E59.71759
G1 X182.828 Y131.082 E59.72814
G1 X182.529 Y131.036 E59.7387
G1 X182.227 Y131.052 E59.74926
G1 X181.934 Y131.132 E59.75987
G1 X181.606 Y131.31 E59.7729
G1 X181.377 Y131.516 E59.78366
G1 X181.203 Y131.758 E59.79407
G1 X181.076 Y132.041 E59.8049
G1 X181.015 Y132.337 E59.81546
G1 X181.015 Y132.638 E59.82597
G1 X181.078 Y132.934 E59.83654
G1 X181.242 Y133.276 E59.84978
G1 X181.434 Y133.512 E59.86041
M204 S700
G0 F6000 X181.153 Y133.801
M204 S750
;TYPE:WALL-INNER
G1 F1200 X181.527 Y134.087 E59.87685
G1 X181.89 Y134.249 E59.89073
G1 X182.267 Y134.327 E59.90418
G1 X182.655 Y134.327 E59.91773
G1 X183.032 Y134.245 E59.9312
G1 X183.39 Y134.086 E59.94488
G1 X183.699 Y133.859 E59.95827
G1 X183.958 Y133.571 E59.9718
G1 X184.151 Y133.234 E59.98536
G1 X184.268 Y132.872 E59.99865
G1 X184.309 Y132.481 E60.01238
G1 X184.267 Y132.091 E60.02608
G1 X184.148 Y131.728 E60.03942
G1 X183.972 Y131.423 E60.05172
G1 X183.953 Y131.391 E60.05302
G1 X183.627 Y131.047 E60.06957
G1 X183.292 Y130.831 E60.08349
G1 X182.931 Y130.693 E60.09698
G1 X182.549 Y130.634 E60.11048
G1 X182.163 Y130.655 E60.12398
G1 X181.784 Y130.758 E60.1377
G1 X181.374 Y130.981 E60.154
G1 X181.077 Y131.247 E60.16792
G1 X180.855 Y131.557 E60.18124
G1 X180.693 Y131.917 E60.19502
G1 X180.615 Y132.296 E60.20854
G1 X180.615 Y132.68 E60.22195
G1 X180.697 Y133.064 E60.23566
G1 X180.902 Y133.492 E60.25223
G1 X181.153 Y133.801 E60.26614
M204 S700
G0 F6000 X181.084 Y133.872
G0 X184.287 Y136.315
G0 X184.357 Y136.385
M204 S750
G1 F1200 X35.557 Y136.385 E65.4627
G1 X35.557 Y133.568 E65.56108
G1 X35.557 Y133.492 E65.56357
G1 X35.557 Y133.064 E65.57249
G1 X35.557 Y132.68 E65.57576
M204 S700
G0 F6000 X35.557 Y132.296
M204 S750
G1 F1200 X35.557 Y131.917 E65.57893
G1 X35.557 Y131.557 E65.58562
G1 X35.557 Y131.4 E65.59044
G1 X35.557 Y86.568 E67.15612
G1 X35.557 Y86.492 E67.1586
G1 X35.557 Y86.064 E67.16752
G1 X35.557 Y85.68 E67.1708
M204 S700
G0 F6000 X35.557 Y85.296
M204 S750
G1 F1200 X35.557 Y84.917 E67.17396
G1 X35.557 Y84.557 E67.18066
G1 X35.557 Y84.4 E67.18548
G1 X35.557 Y83.585 E67.21395
G1 X36.371 Y83.585 E67.24237
G1 X36.374 Y83.585 E67.24248
G1 X36.784 Y83.585 E67.25254
G1 X37.163 Y83.585 E67.2565
M204 S700
G0 F6000 X37.931 Y83.585
M204 S750
G1 F1200 X38.292 Y83.585 E67.26197
G1 X38.551 Y83.585 E67.26935
G1 X181.371 Y83.585 E72.25707
G1 X181.374 Y83.585 E72.25717
G1 X181.784 Y83.585 E72.26724
G1 X182.163 Y83.585 E72.2712
M204 S700
G0 F6000 X182.931 Y83.585
M204 S750
G1 F1200 X183.292 Y83.585 E72.27666
G1 X183.551 Y83.585 E72.28404
G1 X184.357 Y83.585 E72.31219
G1 X184.357 Y84.375 E72.33978
G1 X184.357 Y84.728 E72.34928
G1 X184.357 Y85.091 E72.35393
M204 S700
G0 F6000 X184.357 Y85.872
M204 S750
G1 F1200 X184.357 Y86.234 E72.3585
G1 X184.357 Y86.571 E72.36731
G1 X184.357 Y131.375 E73.93201
G1 X184.357 Y131.728 E73.94151
G1 X184.357 Y132.091 E73.94616
M204 S700
G0 F6000 X184.357 Y132.872
M204 S750
G1 F1200 X184.357 Y133.234 E73.95073
G1 X184.357 Y133.571 E73.95954
G1 X184.357 Y136.385 E74.05781
M204 S700
G0 F6000 X183.957 Y135.985
M204 S750
G1 F1200 X35.957 Y135.985 E79.22644
G1 X35.957 Y134.459 E79.27973
G1 X35.957 Y134.433 E79.28064
G1 X35.957 Y134.155 E79.29035
G1 X36.321 Y134.433 E79.30004
G1 X36.344 Y134.443 E79.30088
G1 X36.767 Y134.632 E79.31706
G1 X37.226 Y134.727 E79.33343
G1 X37.698 Y134.727 E79.34992
G1 X38.157 Y134.627 E79.36632
G1 X38.592 Y134.434 E79.38294
G1 X38.969 Y134.157 E79.39928
G1 X39.284 Y133.807 E79.41572
G1 X39.519 Y133.397 E79.43223
G1 X39.661 Y132.955 E79.44844
G1 X39.711 Y132.48 E79.46512
G1 X39.66 Y132.006 E79.48177
G1 X39.515 Y131.564 E79.49801
G1 X39.276 Y131.15 E79.51471
G1 X38.884 Y130.737 E79.53459
G1 X38.474 Y130.472 E79.55164
G1 X38.034 Y130.304 E79.56809
G1 X37.569 Y130.232 E79.58452
G1 X37.099 Y130.258 E79.60096
G1 X36.634 Y130.384 E79.61779
G1 X36.3 Y130.566 E79.63107
G1 X36.142 Y130.652 E79.63735
G1 X35.957 Y130.817 E79.64601
M204 S700
G0 F6000 X35.957 Y130.652
M204 S750
G1 F1200 X35.957 Y130.472 E79.65085
G1 X35.957 Y87.459 E81.153
G1 X35.957 Y87.433 E81.15391
G1 X35.957 Y87.155 E81.16362
G1 X36.321 Y87.433 E81.17331
G1 X36.344 Y87.443 E81.17415
G1 X36.767 Y87.632 E81.19033
G1 X37.226 Y87.727 E81.2067
G1 X37.698 Y87.727 E81.22318
G1 X38.157 Y87.627 E81.23959
G1 X38.592 Y87.434 E81.25621
G1 X38.969 Y87.157 E81.27255
G1 X39.284 Y86.807 E81.28899
G1 X39.519 Y86.397 E81.30549
G1 X39.661 Y85.955 E81.32171
G1 X39.711 Y85.48 E81.33839
G1 X39.66 Y85.006 E81.35504
G1 X39.515 Y84.564 E81.37128
G1 X39.377 Y84.324 E81.38095
G1 X39.276 Y84.15 E81.38798
G1 X39.119 Y83.985 E81.39593
M204 S700
G0 F6000 X39.276 Y83.985
M204 S750
G1 F1200 X39.478 Y83.985 E81.4012
G1 X180.487 Y83.985 E86.32568
G1 X180.507 Y83.985 E86.32637
G1 X180.772 Y83.985 E86.33563
G1 X180.507 Y84.357 E86.34554
G1 X180.499 Y84.375 E86.34621
G1 X180.31 Y84.793 E86.36223
G1 X180.215 Y85.255 E86.3787
G1 X180.215 Y85.722 E86.39501
G1 X180.316 Y86.194 E86.41186
G1 X180.562 Y86.707 E86.43173
G1 X180.872 Y87.09 E86.44894
G1 X181.321 Y87.433 E86.46867
G1 X181.767 Y87.632 E86.48573
G1 X182.226 Y87.727 E86.5021
G1 X182.698 Y87.727 E86.51858
G1 X183.157 Y87.627 E86.53499
G1 X183.569 Y87.444 E86.55073
G1 X183.592 Y87.434 E86.55161
G1 X183.957 Y87.166 E86.56742
G1 X183.957 Y87.434 E86.57064
G1 X183.957 Y87.46 E86.57152
G1 X183.957 Y130.438 E88.07245
G1 X183.957 Y130.737 E88.08289
G1 X183.957 Y130.814 E88.08558
G1 X183.884 Y130.737 E88.08658
G1 X183.633 Y130.575 E88.09327
G1 X183.474 Y130.472 E88.09988
G1 X183.034 Y130.304 E88.11633
G1 X182.569 Y130.232 E88.13277
G1 X182.099 Y130.258 E88.1492
G1 X181.634 Y130.384 E88.16603
G1 X181.142 Y130.652 E88.1856
G1 X180.777 Y130.978 E88.20269
G1 X180.507 Y131.357 E88.21894
G1 X180.31 Y131.793 E88.23565
G1 X180.215 Y132.255 E88.25212
G1 X180.215 Y132.722 E88.26843
G1 X180.316 Y133.194 E88.28528
G1 X180.562 Y133.707 E88.30515
G1 X180.872 Y134.09 E88.32236
G1 X181.321 Y134.433 E88.34209
G1 X181.767 Y134.632 E88.35915
G1 X182.226 Y134.727 E88.37552
